X: 21062
M: 2/4
L: 1/16
K: Bb
V: 1 name="2"
[|\
dedc BcBA | EGFE D2D2 | FDEF GFGA | BABd c3f |\
dedc BcBA | FGFE D2e2 | defd gecA | B4 "^D.C."z2 |]
d3d d2d2 | d2d2 g4 | d2c2B2A2 | G2G2 G4 |\
c3c c2c2 | c2c2 f4 | dedc BcBA | FGFE EDC"^D.C."B, |]


